!! 00000] TT[WS
!!!OTL: Hanggua kaihua zao shangjia
!!!ARE: Asia, China,ÿShanxi Ningwu
!! Ethnic Group: Han
!! WI, 150
!!!SCT: J0181
!!!YEM: Copyright 1995, estate of Helmut Schaffrath.
**kern
*ICvox
*Ivox
*M2/4
*k[b-e-]
*B-:
{8.ccc
16ddd
8ccc
8ddd
=1
8.ccc
16ddd
8ccc
8ddd
=2
8.bb-
16bb-
8aa
8ccc
=3
8aa
8gg
4ff
=4
8.bb-
16bb-
8aa
8ccc
=5
8aa
8gg
4ff}
=6
{8bb-
16bb-
16ccc
8ddd
16ddd
16ccc
=7
8bb-
16bb-
16ccc
8gg
8ff
=8
16dd
16ff
16dd
16ff
8ddd
16ccc
16ddd
=9
2ff}
=10
{8.ccc
16ddd
8ccc
8ddd
=11
8.ccc
16ddd
8ccc
8ddd
=12
8.bb-
16bb-
8aa
8ccc
=13
8aa
8gg
4ff
=14
8.bb-
16bb-
8aa
8ccc
=15
8aa
8gg
4ff}
=16
{8.bb-
16ccc
8ddd
8ccc
=17
8bb-
8ccc
8gg
8ff
=18
8.bb-
16ddd
8ccc
8ddd
=19
8bb-
8ccc
8gg
8ff
=20
8.bb-
16ccc
8gg
8ff}
=21
{8.bb-
16ddd
8ccc
8ddd
=22
8bb-
8ccc
8gg
8ff
=23
16dd
16ff
16dd
16ff
8ddd
16ccc
16ddd
=24
2ff}
==
!!!AGN: Xiaodiao. Qingge
!!!ONB: ESAC (Essen Associative Code) Database: CHINA
!!!AMT: simple duple
!!!AIN: vox
!!!EED: Helmut Schaffrath
!!!EEV: 1.0
*-
